X:955
T:Reel 955
M:4/4
K:Gmin
L:1/8
GA|BdGA BcdG|AFcG AFcF|BdGA BcdB|cF (3def g2ga|bagf gdBc|AdcB AFFA|BAGA Bcdg| (3fed cA BGG|||baga b2ag|faag faga|baga bagf| (3def cA AGGA|bagf gfde|fdcB AFFA|GABc dcdf| (3def cA AGG2|
